X: 12706
T: Father Fielding's Favourite
R: jig
M: 6/8
K: Gmajor
|:G3 BcA|BGF G A/B/c|dBG cAF|GDC B,CD|
G3 BcA|BAg fed|cAG FGA|1 AGF G2D:|2 AGF GBd||
|:ggg afd|ccc dBG|ggg afd|cBc def|
gdg fdf|eee gfe|ded BcA|1 AGF GBd:|2 BGF G2D||

